X: 291
T: the Shambuy
T: Sean Bui(dhe)
T: the Marquis of Granby
T: Over the Water to Charlie
B: C. & S. Thompson, "The Compleat Tutor for the Fife" c.1760 p.29 #1
S: http://imslp.org/wiki/The_Compleat_Tutor_for_the_Fife_(Anonymous)
Z: 2014 John Chambers <jc:trillian.mit.edu>
M: 6/8
L: 1/8
K: G
% - - - - - - - - - - - - - - - - - - - - - - - - -
|:\
GBd  dBd | (e/f/g)e dBG | GBd dBd | Te3 g3 |\
GBd  dBd | (e/f/g)e dBG | (g/a/b)g (f/g/a)f | Te3 g3 :|
|:\
(g/a/b)g (f/g/a)f | (e/f/g)e dBG | (g/a/b)g (f/g/a)f | Te3 g3 |\
(g/a/b)g (f/g/a)f | (e/f/g)e dBG | GBd dBd | Te3 g3 :|
% - - - - - - - - - - - - - - - - - - - - - - - - -
